X:1
T:James Gibb editions
T:Tutta sei bella - Antonelli da Rimini
%%score [ 1 2 3 ]
L:1/8
Q:1/4=100
M:2/2
K:C
V:1 treble-8 nm="Tenor I" snm="T I"
V:2 treble-8 nm="Tenor II" snm="T II"
V:3 bass nm="Bass" snm="B"
V:1
"^Tutta sei bella""^Cornelio Antonelli da Rimini\n(C16th)" e4 d2 d2 | c4 B2 e2- | e2 e2 f2 e2 | %3
w: Tut- ta sei|bel- la, don\-|* na mía gen-|
w: |||
w: Se Dio v'ha|fat- to bel\-|* la, per- chè|
 (d2 B2) c4 ::[M:2/2][K:treble-8] z2 e2 e2 e2 | e2 e2 e4 | d4 d2 c2 | B4 A4 | z2 e2 g2 g2 | %9
w: ti\- * le|Ma quis- to|pan- no ch'in|fac- cia por-|ta- te||
w: |||||E' la gran|
w: vo\- * i|Ce- la- te|lo bel vi-|so~~a le per-|so- ne?||
[M:2/2][K:treble-8] f4 e4 | z2 c2 d2 e2 | f2 f2 e3 d | c2 c2 B4 | ^c8 :| %14
w: pe- na,|E' la gran|pe- na de gli~~i-|na- mo- ra-|ti.|
w: |||||
w: |||||
V:2
 c4 B2 B2 | A4 G2 c2- | c2 c2 d2 c2 | G4 c4 ::[M:2/2][K:treble-8] z2 c2 c2 c2 | c2 c2 c4 | %6
w: Tut- ta sei|bel- la, don\-|* na mía gen-|ti- le|Ma quis- to|pan- no ch'in|
w: ||||||
w: Se Dio v'ha|fat- to bel\-|* la, per- chè|vo- i|Ce- la- te|lo bel vi-|
 B4 A2 A2 | (A2 ^G2) A4 | c4 B4 |[M:2/2][K:treble-8] A4 c2 c2 | (B2 A2) B2 c2 | d2 d2 c2 c2 | %12
w: fac- cia por-|ta\- * te||gran pe- na,|E' * la gran|pe- na de gli~~i-|
w: ||E' la||||
w: so~~a le per-|so\- * ne?|||||
 A2 A2 ^G4 | A8 :| %14
w: na- mo- ra-|ti.|
w: ||
w: ||
V:3
 C,4 G,,2 G,,2 | A,,4 E,2 C,2- | C,2 C,2 D,2 C,2 | G,,4 C,4 ::[M:2/2] z2 C,2 C,2 C,2 | %5
w: Tut- ta sei|bel- la, don\-|* na mía gen-|ti- le|Ma quis- to|
w: |||||
w: Se Dio v'ha|fat- to bel\-|* la, per- chè|vo- i|Ce- la- te|
 C,2 C,2 C,4 | G,,4 A,,2 A,,2 | E,4 A,,4 | A,4 G,4 |[M:2/2] D,4 A,2 A,2 | (G,2 F,2) G,2 C,2 | %11
w: pan- no ch'in|fac- cia por-|ta- te||gran pe- na,|E' * la gran|
w: |||E' la|||
w: lo bel vi-|so~~a le per-|so- ne?||||
 (D,E,) (F,G,) A,2 A,,2 | A,,2 A,,2 E,4 | [A,,E,]8 :| %14
w: pe\- * na * de gli~~i-|na- mo- ra-|ti.|
w: |||
w: |||

